X: 2
T: The Trumpet
R: hornpipe
M: 4/4
L: 1/8
K: Gmaj
|:(3ddd d2 (3ddd d2|efgf edcB|cded cBAG|FGAG FDEF|(3GGG G2 (3=FFF F2|(3EEE E2 (3_EEE E2|DGBe dcBA|1 G2B2 G2Bc :|2 G2B2 G4||


Tune 1408	Setting 29445

